X:1
T:Lift Thy Face to the Light!
T:William Edie Marks
T:Lift Thy Face to the Light!
T:Public Domain
T:Public Domain
T:Public Domain
C:William Edie Marks
Z:Public Domain
%%score ( 1 2 ) ( 3 4 )
L:1/8
M:4/4
K:Db
V:1 treble 
V:2 treble 
V:3 bass 
V:4 bass 
V:1
 [DF]>[EG] | [FA]>[Fd] [Af]>[Ge] [Fd]>[GB] [FA]>[EG] | [DF]2 [CE]>[CE] D2 [DF]>[EG] | %3
w: 1.~Is thy|heart op- pressed with sor- row? Lift thy|face to the light; Dost thou|
w: 2.~When thy|dear- est hopes shall fail thee, Lift thy|face to the light; When temp-|
w: 3.~Thro’ life’s|sun and sha- dow sing- ing, Lift thy|face to the light; In thy|
 [FA]>[Fd] [Af]>[Ge] [Fd]>[GB] [FA]>[Fd] | [Ec]2 [DB]>[DB] [CA]2 [CE]>[DF] | %5
w: a dark to- mor- row? Lift thy face|to the light. Still it shines|
w: tions strong as- sail thee, Lift thy face|to the light. Clos- er cling|
w: God’s prais- es ring- ing, Lift thy face|to the light. O- ther lives|
 [EG]>[DF] [CE]>[DF] [EG]2 [DF]>[CE] | D>[CE] [DF]>[EG] [FA]2 [FA]>[FA] | %7
w: un- fail- ing- ly, Just be- yond|the clouds for thee, Love’s clear light,|
w: when sha- dows fall, God is with|thee thro’ them all, He will hear|
w: with grief bowed low, From thine own|may catch the glow, Learn love’s full-|
 [GB]>[Gc] [Gd]>[GB] ([FA]>[DF]) D>[EG] | [DF]2 [CE]>[CE] D2 ||"^Refrain" [DF]>[EG] | %10
w: full and free, Lift thy * face to|light. * * *||
w: faint- est call, Lift thy * face to|light. Lift thy face|the light,|
w: peace to know, Lift thy * face to|light. * * *||
 (F2 F>F A>d) [Ac]>[GB] | (F>F F>F F2) [EG]>[DF] | (C2 C>C E>B) [CA]>[EG] | (DD D>D D2) [DF]>[EG] | %14
w: ||||
w: Lift * * * * thy face|light, * * * * Soon all|clouds * * * * will pass|Soon * * * * will *|
w: ||||
 [FA]>[EG] [DF]>[EG] [FA]2 [FA]>[FA] | [GB]>[Gc] [Gd]>[GB] [FA]2 [GB]>[GB] | %16
w: ||
w: the per- fect day, Lift thy face|to the light! * * * *|
w: ||
 (F2 F>F A>d) [Ec]>[Ge] | (F2 G>G F2) |] %18
w: ||
w: ||
w: ||
V:2
 x2 | x8 | x4 D2 x2 | x8 | x8 | x8 | D3/2 x13/2 | x6 D3/2 x/ | x4 D2 || x2 | A4- F2 x2 | A6 x2 | %12
w: ||dread||||so|the|||||
w: ||ta-||||thy|the|to||to the||
w: ||heart||||est|the|||||
 E4- C2 x2 | A6 x2 | x8 | x8 | A4- F2 x2 | d6 |] %18
w: ||||||
w: a- way,|dawn|||||
w: ||||||
V:3
 [D,A,]>[D,A,] | [D,D]>[D,D] [D,D]>[D,D] [D,D]>[D,D] [D,D]>[D,A,] | %2
w: ~ ~|~ ~ ~ ~ ~ ~ ~ ~|
 [D,A,]2 [A,,A,]>[A,,G,] [D,F,]2 [D,A,]>[D,A,] | [D,D]>[D,D] [D,D]>[D,D] [D,D]>[D,D] [D,D]>[D,A,] | %4
w: ~ ~ ~ ~ ~ ~|~ ~ ~ ~ ~ ~ ~ ~|
 [E,A,]2 [E,=G,]>[E,G,] [A,,A,]2 [A,,A,]>[A,,A,] | %5
w: ~ ~ ~ ~ ~ ~|
 [A,,A,]>[A,,A,] [A,,A,]>[A,,A,] [A,,A,]2 [D,A,]>[D,G,] | %6
w: ~ ~ ~ ~ ~ ~ ~|
 [D,F,]>[D,F,] [D,A,]>[D,A,] [D,D]2 [D,D]>[D,D] | [G,D]>[G,C] [G,B,]>[G,D] (D>A,) [F,A,]>[G,B,] | %8
w: ~ ~ ~ ~ ~ ~ ~|~ ~ ~ ~ ~ * ~ ~|
 A,2 [A,,A,]>[A,,A,] [D,F,]2 || [D,A,]>[D,A,] | [D,D]2 [D,D]>[D,D] [D,D]2 [D,D]>[D,D] | %11
w: ~ ~ ~ Lift|face to|the light, to the bless- èd,|
 [D,D]>[D,D] [D,D]>[D,D] [D,D]2 [D,A,]>[D,A,] | [A,,A,]2 [A,,A,]>[A,,A,] [A,,A,]2 [A,,A,]>[A,,A,] | %13
w: bless- èd light, Lift thy face to|the light, to the bless- èd,|
 [D,A,][D,A,] [D,A,]>[D,A,] [D,A,]2 [D,A,]>[D,A,] | %14
w: gold- en light, ~ ~ ~ ~|
 [D,A,]>[D,A,] [D,A,]>[D,A,] [D,D]2 [D,D]>[D,D] | [G,D]>[G,C] [G,B,]>[G,D] [D,D]2 [G,D]>[G,D] | %16
w: ~ ~ ~ ~ ~ ~ ~|~ ~ ~ ~ ~ ~ Lift|
 [A,D]2 [A,D]>[A,D] [A,D]2 A,>A, | A,2 B,>B, A,2 |] %18
w: thy face, ~ ~ ~ bless-||
V:4
 x2 | x8 | x8 | x8 | x8 | x8 | x8 | x4 D,2 x2 | A,2 x4 || x2 | x8 | x8 | x8 | x8 | x8 | x8 | %16
w: |||||||~|thy||||||||
 x6 A,>A, | D,6 |] %18
w: èd light!||

